public/images/dev34.svg

<svg width="100" height="100" viewBox="0 0 100 100" fill="none" xmlns="http://www.w3.org/2000/svg">
<path d="M3 76.2387C3.92765 73.6687 5.88912 72.7849 8.44853 72.8214C10.7285 72.8522 13.0141 72.7765 15.2941 72.8438C18.7476 72.9448 20.4856 74.8892 20.3235 78.3345C20.2984 78.8957 20.2229 79.4288 19.6474 79.5775C18.77 79.8047 17.9178 80.4192 16.9762 80.046C16.5179 79.8692 16.6968 79.3053 16.6968 78.9013C16.6269 76.6567 16.1715 76.205 13.9529 76.1994C12.229 76.1994 10.5078 76.1742 8.78382 76.1994C7.28059 76.2275 6.62397 76.8335 6.61 78.3261C6.57368 82.6749 6.61 87.0237 6.61 91.3697C6.61 92.6688 7.26941 93.3337 8.54073 93.4768C10.4918 93.6592 12.4549 93.6733 14.4084 93.5189C16.2497 93.3926 16.6437 92.8034 16.7387 90.8984C16.7638 90.3148 16.2693 89.3552 17.4819 89.3216C18.7979 89.2851 20.2509 90.1633 20.3487 91.005C20.7343 94.3522 19.1807 96.4256 15.8362 96.8155C13.1985 97.1242 10.5274 96.9699 7.88691 96.8857C5.565 96.8184 3.90529 95.7915 3 93.6339V76.2387Z" fill="#44417F"/>
<path d="M58.9271 85.3656C58.9271 82.6469 58.9075 80.4949 58.9271 78.3514C58.969 74.5132 60.5784 72.8803 64.3756 72.8382C66.6584 72.813 68.9412 72.7849 71.2212 72.8382C74.8535 72.9364 76.5775 74.9144 76.2506 78.5365C76.0885 80.2761 74.5238 79.8636 73.5487 80.1049C72.4031 80.3855 72.7496 79.2632 72.7105 78.6544C72.5819 76.7072 72.0874 76.205 70.1315 76.191C68.4075 76.191 66.6863 76.1714 64.9624 76.191C63.2859 76.2134 62.5958 76.8111 62.579 78.4355C62.5371 82.6889 62.5566 86.9452 62.579 91.2014C62.579 92.5677 63.2077 93.4459 64.6494 93.4908C66.555 93.5441 68.4662 93.6311 70.3662 93.5273C72.2662 93.4235 72.6015 92.8764 72.7244 90.9433C72.7608 90.3428 72.3193 89.4001 73.4649 89.33C74.8619 89.243 76.2115 90.1717 76.259 91.1761C76.4462 94.9273 75.1246 96.5771 71.3777 96.8604C68.5528 97.0737 65.7028 97.141 62.878 96.7454C60.6259 96.4227 59.3797 95.1826 59.0808 92.9241C58.7147 90.2222 59.036 87.5035 58.9271 85.3656Z" fill="#44417F"/>
<path d="M34.8977 84.9195C34.8977 87.4446 34.9284 89.9697 34.8809 92.4948C34.8641 93.3365 35.11 93.6451 35.979 93.6171C37.4655 93.5525 38.9575 93.6367 40.4496 93.5862C41.2878 93.5581 41.5672 93.8443 41.5812 94.7085C41.6008 96.9698 41.6399 96.9698 39.4465 96.9698C35.0234 96.9698 30.6003 96.9165 26.18 97.0007C24.741 97.0288 24.6153 96.3414 24.6125 95.1995C24.6097 94.0576 24.8277 93.4571 26.1493 93.5778C27.4709 93.6984 28.8512 93.5469 30.1952 93.6227C31.148 93.6788 31.3659 93.3112 31.3603 92.4162C31.3249 87.366 31.3249 82.3158 31.3603 77.2656C31.3603 76.3706 31.0613 76.1433 30.2427 76.1882C28.9406 76.2471 27.6358 76.1686 26.3309 76.2134C24.7997 76.2668 25.121 75.1866 25.068 74.2859C25.0149 73.3853 25.163 72.8017 26.3197 72.8158C30.8816 72.87 35.4453 72.87 40.0109 72.8158C41.3381 72.7989 41.2515 73.5705 41.2487 74.4487C41.2459 75.3268 41.3744 76.2864 39.969 76.2191C38.6222 76.1545 37.2671 76.2443 35.9203 76.191C35.1296 76.1601 34.8725 76.4126 34.8865 77.2207C34.9284 79.7767 34.8977 82.3495 34.8977 84.9195Z" fill="#44417F"/>
<path d="M50.7962 80.1638C51.9781 81.4152 53.1544 82.6749 54.3475 83.915C54.6303 84.1626 54.8133 84.5054 54.8622 84.8789C54.9111 85.2524 54.8224 85.631 54.6129 85.9435C52.1467 90.4326 49.685 94.9273 47.2281 99.4276C47.0856 99.6858 47.0046 100.157 46.5687 99.9523C46.1328 99.7475 46.4178 99.3912 46.4849 99.0853C47.3007 95.4015 48.1138 91.7148 48.9437 88.0338C49.0997 87.4967 49.1658 86.9373 49.1393 86.3784C49.1393 84.4145 49.8015 82.5936 50.2374 80.7222C50.271 80.5868 50.3409 80.4633 50.4394 80.3649C50.5378 80.2665 50.6612 80.197 50.7962 80.1638Z" fill="#FBA226"/>
<path d="M50.7962 80.1638C50.2122 81.7154 50.0194 83.3651 49.6394 84.9672C49.499 85.4438 49.3321 85.9122 49.1393 86.37C48.0216 85.1888 46.904 83.9908 45.7724 82.8348C45.1046 82.1615 45.071 81.4881 45.5069 80.6913C47.9434 76.2415 50.3659 71.7833 52.8079 67.3363C52.9449 67.0866 53.0259 66.5815 53.4478 66.7583C53.9228 66.9575 53.635 67.4232 53.5624 67.7487C52.6543 71.8927 51.7238 76.0339 50.7962 80.1638Z" fill="#E14329"/>
<path d="M92.5906 72.8158C89.0086 72.8532 85.4256 72.8532 81.8416 72.8158C80.9363 72.8158 80.615 73.0963 80.6178 74.0222C80.642 81.2646 80.642 88.507 80.6178 95.7494C80.6178 96.678 80.981 96.9783 81.8612 96.9726C85.4433 96.9474 89.0281 96.9726 92.6102 96.953C95.0466 96.9334 97.0556 96.1422 98 93.6395V76.2443C97.1366 73.6013 95.1528 72.7905 92.5906 72.8158ZM94.4068 91.0218C94.39 92.8371 93.9681 93.4066 92.1491 93.5076C89.7881 93.6395 87.4131 93.5553 85.0465 93.5946C84.4234 93.5946 84.2558 93.3393 84.2558 92.7529C84.2688 87.482 84.2688 82.211 84.2558 76.9401C84.2558 76.292 84.5352 76.1713 85.094 76.1742C87.5109 76.1938 89.925 76.1545 92.3419 76.1938C93.7725 76.219 94.3593 76.8138 94.39 78.2728C94.4347 80.464 94.39 82.6581 94.39 84.8493C94.4124 86.9171 94.4263 88.9681 94.4068 91.0218Z" fill="#44417F"/>
<path d="M50.3631 51.5487L60.6315 19.8445H40.0947L50.3631 51.5487Z" fill="#E24329"/>
<path d="M50.3631 51.5487L40.0947 19.8445H25.7218L50.3631 51.5487Z" fill="#FC6D26"/>
<path d="M25.7218 19.8305L22.6119 29.4596C22.4731 29.8932 22.4743 30.3597 22.6153 30.7925C22.7563 31.2253 23.0299 31.6023 23.3971 31.8697L50.3631 51.5487L25.7218 19.8446V19.8305Z" fill="#FCA326"/>
<path d="M25.7218 19.8305H40.0947L33.9477 0.726654C33.8763 0.514053 33.7403 0.329293 33.5589 0.198413C33.3774 0.0675324 33.1596 -0.00286865 32.9362 -0.00286865C32.7128 -0.00286865 32.495 0.0675324 32.3135 0.198413C32.132 0.329293 31.9961 0.514053 31.9247 0.726654L25.7218 19.8305Z" fill="#E24329"/>
<path d="M50.3631 51.5487L60.6315 19.8445H75.0044L50.3631 51.5487Z" fill="#FC6D26"/>
<path d="M75.0044 19.8305L78.1143 29.4596C78.2498 29.8913 78.247 30.3547 78.1061 30.7847C77.9652 31.2146 77.6935 31.5892 77.3291 31.8557L50.3631 51.5347L75.0044 19.8305Z" fill="#FCA326"/>
<path d="M75.0044 19.8305H60.6287L66.8204 0.726654C66.8918 0.514053 67.0278 0.329293 67.2092 0.198413C67.3907 0.0675324 67.6085 -0.00286865 67.8319 -0.00286865C68.0553 -0.00286865 68.2731 0.0675324 68.4546 0.198413C68.636 0.329293 68.772 0.514053 68.8434 0.726654L74.9904 19.8305H75.0044Z" fill="#E24329"/>
</svg>

<svg xmlns="http://www.w3.org/2000/svg" width="100" height="100" fill="none"><path fill="#44417F" d="M3 76.239c.928-2.57 2.89-3.454 5.449-3.418 2.28.031 4.565-.044 6.845.023 3.454.1 5.192 2.045 5.03 5.49-.026.562-.101 1.095-.677 1.243-.877.228-1.73.842-2.67.469-.46-.177-.28-.74-.28-1.145-.07-2.244-.525-2.696-2.744-2.702-1.724 0-3.445-.025-5.17 0-1.502.029-2.159.635-2.173 2.127-.036 4.349 0 8.698 0 13.044 0 1.299.66 1.964 1.93 2.107a34 34 0 0 0 5.868.042c1.842-.126 2.236-.716 2.33-2.62.026-.584-.469-1.544.744-1.577 1.316-.037 2.769.841 2.867 1.683.385 3.347-1.168 5.42-4.513 5.81-2.638.31-5.309.155-7.95.07-2.321-.067-3.98-1.094-4.886-3.251zM58.927 85.366c0-2.72-.02-4.871 0-7.015.042-3.838 1.651-5.47 5.449-5.513 2.282-.025 4.565-.053 6.845 0 3.632.098 5.356 2.076 5.03 5.699-.163 1.74-1.727 1.327-2.702 1.568-1.146.28-.8-.842-.839-1.45-.128-1.948-.623-2.45-2.578-2.464-1.725 0-3.446-.02-5.17 0-1.676.022-2.366.62-2.383 2.245-.042 4.253-.022 8.51 0 12.765 0 1.367.629 2.245 2.07 2.29 1.906.053 3.817.14 5.717.036 1.9-.103 2.236-.65 2.358-2.584.037-.6-.405-1.543.74-1.613 1.398-.087 2.748.842 2.795 1.846.187 3.751-1.134 5.401-4.881 5.684-2.825.214-5.675.281-8.5-.115-2.252-.322-3.498-1.562-3.797-3.82-.366-2.703-.045-5.421-.154-7.56M34.898 84.92c0 2.525.03 5.05-.017 7.575-.017.841.229 1.15 1.098 1.122 1.486-.065 2.979.02 4.47-.03.839-.029 1.118.257 1.132 1.121.02 2.262.059 2.262-2.135 2.262-4.423 0-8.846-.053-13.266.03-1.439.029-1.565-.659-1.567-1.8s.215-1.743 1.536-1.622c1.322.12 2.702-.031 4.046.045.953.056 1.17-.312 1.165-1.207q-.052-7.575 0-15.15c0-.895-.299-1.123-1.117-1.078-1.302.06-2.607-.02-3.912.025-1.531.054-1.21-1.026-1.263-1.927-.053-.9.095-1.484 1.252-1.47q6.843.081 13.69 0c1.328-.017 1.242.754 1.239 1.633-.003.878.125 1.837-1.28 1.77-1.347-.064-2.702.025-4.049-.028-.79-.03-1.047.222-1.034 1.03.042 2.556.012 5.129.012 7.698"/><path fill="#FBA226" d="M50.796 80.164c1.182 1.251 2.358 2.51 3.551 3.751a1.55 1.55 0 0 1 .266 2.028q-3.7 6.734-7.385 13.485c-.142.258-.223.729-.66.524-.435-.204-.15-.56-.083-.867.816-3.683 1.629-7.37 2.459-11.051a5.1 5.1 0 0 0 .195-1.656c0-1.963.662-3.784 1.098-5.656a.77.77 0 0 1 .56-.558"/><path fill="#E14329" d="M50.796 80.164c-.584 1.551-.777 3.201-1.157 4.803q-.21.716-.5 1.403c-1.117-1.181-2.235-2.38-3.367-3.535-.667-.673-.701-1.347-.265-2.144 2.436-4.45 4.859-8.908 7.3-13.355.138-.25.219-.754.64-.578.476.2.188.665.115.99-.908 4.145-1.838 8.286-2.766 12.416"/><path fill="#44417F" d="M92.59 72.816q-5.372.056-10.748 0c-.906 0-1.227.28-1.224 1.206q.036 10.864 0 21.727c0 .929.363 1.23 1.243 1.224 3.582-.026 7.167 0 10.75-.02 2.436-.02 4.445-.81 5.389-3.314V76.245c-.863-2.643-2.847-3.454-5.41-3.428m1.817 18.206c-.017 1.815-.439 2.385-2.258 2.486-2.36.132-4.736.047-7.103.087-.623 0-.79-.256-.79-.842q.02-7.907 0-15.813c0-.648.28-.769.838-.766 2.417.02 4.831-.02 7.248.02 1.43.025 2.017.62 2.048 2.079.045 2.191 0 4.385 0 6.576.022 2.068.036 4.12.017 6.173"/><path fill="#E24329" d="m50.363 51.549 10.269-31.704H40.095z"/><path fill="#FC6D26" d="M50.363 51.549 40.095 19.845H25.722z"/><path fill="#FCA326" d="m25.722 19.83-3.11 9.63a2.17 2.17 0 0 0 .785 2.41l26.966 19.679-24.641-31.704z"/><path fill="#E24329" d="M25.722 19.83h14.373L33.948.727a1.07 1.07 0 0 0-1.012-.73 1.065 1.065 0 0 0-1.011.73z"/><path fill="#FC6D26" d="m50.363 51.549 10.269-31.704h14.372z"/><path fill="#FCA326" d="m75.004 19.83 3.11 9.63a2.17 2.17 0 0 1-.785 2.396L50.363 51.535z"/><path fill="#E24329" d="M75.004 19.83H60.63L66.82.727a1.07 1.07 0 0 1 1.012-.73 1.065 1.065 0 0 1 1.011.73L74.99 19.83z"/></svg>
